site/static/images/github-star.svg

<svg fill="none" height="15" viewBox="0 0 16 15" width="16" xmlns="http://www.w3.org/2000/svg"><path clip-rule="evenodd" d="m8.0009.25c.14001-.00009.27725.039014.39619.112887s.21483.179565.27681.305113l1.882 3.815 4.21.612c.1385.02011.2685.07855.3755.16872.107.09016.1866.20846.2299.34151.0433.13306.0485.27557.015.41142s-.1043.25963-.2044.35735l-3.046 2.97.719 4.192c.0237.1379.0084.2797-.0443.4094s-.1406.242-.2538.3243-.2472.1313-.3868.1414-.2792-.019-.4031-.0841l-3.766-1.98-3.766 1.98c-.12382.065-.26334.0941-.40281.084-.13948-.0101-.27335-.059-.38651-.1411-.11316-.0822-.20109-.1944-.25387-.3239s-.0683-.2711-.04481-.409l.72-4.194-3.048003-2.969c-.100434-.09768-.171501-.22153-.205149-.35753-.033647-.136-.02853-.2787.014773-.41194s.123059-.25169.230231-.34192c.107173-.09023.237478-.14864.376148-.16861l4.21-.611 1.883-3.815c.06198-.125548.15786-.23124.2768-.305113s.25618-.112977.3962-.112887z" fill="#ffc82c" fill-rule="evenodd"/></svg>

<svg width="16" height="15" viewBox="0 0 16 15" fill="none" xmlns="http://www.w3.org/2000/svg">
<path fill-rule="evenodd" clip-rule="evenodd" d="M8.0009 0.25C8.14091 0.24991 8.27815 0.289014 8.39709 0.362887C8.51603 0.43676 8.61192 0.542452 8.6739 0.668L10.5559 4.483L14.7659 5.095C14.9044 5.11511 15.0344 5.17355 15.1414 5.26372C15.2484 5.35388 15.328 5.47218 15.3713 5.60523C15.4146 5.73829 15.4198 5.8808 15.3863 6.01665C15.3528 6.1525 15.282 6.27628 15.1819 6.374L12.1359 9.344L12.8549 13.536C12.8786 13.6739 12.8633 13.8157 12.8106 13.9454C12.7579 14.0751 12.67 14.1874 12.5568 14.2697C12.4436 14.352 12.3096 14.401 12.17 14.4111C12.0304 14.4212 11.8908 14.3921 11.7669 14.327L8.0009 12.347L4.2349 14.327C4.11108 14.392 3.97156 14.4211 3.83209 14.411C3.69261 14.4009 3.55874 14.352 3.44558 14.2699C3.33242 14.1877 3.24449 14.0755 3.19171 13.946C3.13893 13.8165 3.12341 13.6749 3.1469 13.537L3.8669 9.343L0.818897 6.374C0.718463 6.27632 0.647396 6.15247 0.613748 6.01647C0.580101 5.88047 0.585218 5.73777 0.628521 5.60453C0.671824 5.47129 0.75158 5.35284 0.858752 5.26261C0.965925 5.17238 1.09623 5.11397 1.2349 5.094L5.4449 4.483L7.3279 0.668C7.38988 0.542452 7.48576 0.43676 7.6047 0.362887C7.72364 0.289014 7.86088 0.24991 8.0009 0.25Z" fill="#FFC82C"/>
</svg>
